icon/lg/onesignal.svg

<?xml version="1.0" encoding="UTF-8" standalone="no"?>
<svg viewBox="0 0 256 236" version="1.1" xmlns="http://www.w3.org/2000/svg" xmlns:xlink="http://www.w3.org/1999/xlink" preserveAspectRatio="xMidYMid" height="1em" width="1em">
  <g>
    <path d="M128.343773,0 C57.5812604,0 0,57.5812604 0,128.343773 C0,173.437531 23.5875043,212.981288 58.2750105,235.875043 C60.3562609,234.487542 62.4375113,233.100042 64.5187617,231.712542 C65.9062619,231.018792 67.9875123,229.631291 69.3750125,228.937541 C71.4562629,228.243791 73.5375133,226.856291 74.9250135,226.162541 C77.0062639,225.468791 79.0875143,224.775041 81.1687647,223.38754 C82.5562649,222.69379 84.6375153,222.00004 86.0250155,221.30629 C88.1062659,220.61254 90.8812664,219.91879 92.9625168,219.22504 C95.0437672,218.531289 96.4312674,218.531289 98.5125178,217.837539 C100.593768,217.143789 101.981268,217.143789 104.062519,216.450039 C106.143769,215.756289 108.22502,215.756289 110.30627,215.756289 L110.30627,215.756289 C112.38752,215.756289 115.162521,215.062539 117.243771,215.062539 L117.243771,215.062539 L117.243771,206.737537 L117.243771,199.800036 L117.243771,171.356281 L117.243771,164.41878 L117.243771,138.750025 L110.30627,138.750025 L110.30627,124.875023 L117.243771,124.875023 L138.056275,124.875023 L144.993776,124.875023 L144.993776,162.337529 L144.993776,169.968781 L144.993776,199.106286 L144.993776,206.043787 L144.993776,216.450039 C164.41878,219.22504 181.762533,226.162541 197.718786,235.875043 L197.718786,235.875043 C233.100042,212.981288 255.993796,173.437531 255.993796,128.343773 C256.687546,57.5812604 199.106286,0 128.343773,0 L128.343773,0 Z M166.50003,128.343773 C166.50003,107.531269 149.156277,90.1875163 128.343773,90.1875163 C107.531269,90.1875163 90.1875163,107.531269 90.1875163,128.343773 C90.1875163,142.912526 98.5125178,156.093778 111.00002,162.337529 L111.00002,169.968781 C95.0437672,163.031279 83.250015,147.075027 83.250015,128.343773 C83.250015,103.368769 103.368769,83.250015 128.343773,83.250015 C153.318778,83.250015 173.437531,103.368769 173.437531,128.343773 C173.437531,144.300026 165.11253,158.175029 152.625028,166.50003 L152.625028,158.175029 C160.950029,150.543777 166.50003,140.137525 166.50003,128.343773 L166.50003,128.343773 Z M152.625028,203.962537 L152.625028,196.331285 C181.068783,186.618784 201.187536,159.562529 201.187536,127.650023 C201.187536,88.1062659 168.58128,55.50001 128.343773,55.50001 C88.1062659,55.50001 55.50001,88.1062659 55.50001,128.343773 C55.50001,162.337529 79.0875143,191.475035 111.00002,199.106286 L111.00002,206.043787 C75.6187637,198.412536 48.5625088,166.50003 48.5625088,128.343773 C48.5625088,83.9437652 83.9437652,48.5625088 128.343773,48.5625088 C172.743781,48.5625088 208.125038,83.9437652 208.125038,128.343773 C208.125038,163.72503 184.537533,194.250035 152.625028,203.962537 L152.625028,203.962537 Z" fill="#E44A49"/>
  </g>
</svg>

<svg width="256" height="236" xmlns="http://www.w3.org/2000/svg" preserveAspectRatio="xMidYMid"><path d="M128.344 0C57.58 0 0 57.581 0 128.344c0 45.094 23.588 84.637 58.275 107.531l6.244-4.162c1.387-.694 3.469-2.082 4.856-2.775 2.081-.694 4.163-2.082 5.55-2.775 2.081-.694 4.163-1.388 6.244-2.775 1.387-.694 3.469-1.388 4.856-2.082 2.081-.693 4.856-1.387 6.938-2.081 2.08-.694 3.468-.694 5.55-1.387 2.08-.694 3.468-.694 5.55-1.388 2.08-.694 4.162-.694 6.243-.694 2.082 0 4.857-.693 6.938-.693V138.75h-6.938v-13.875h34.688V216.45c19.425 2.775 36.769 9.713 52.725 19.425 35.381-22.894 58.275-62.437 58.275-107.531C256.688 57.58 199.106 0 128.344 0ZM166.5 128.344c0-20.813-17.344-38.156-38.156-38.156-20.813 0-38.156 17.343-38.156 38.156 0 14.569 8.325 27.75 20.812 33.994v7.63c-15.956-6.937-27.75-22.893-27.75-41.624 0-24.975 20.119-45.094 45.094-45.094s45.094 20.119 45.094 45.094c0 15.956-8.325 29.831-20.813 38.156v-8.325c8.325-7.631 13.875-18.037 13.875-29.831Zm-13.875 75.619v-7.632c28.444-9.712 48.563-36.768 48.563-68.681 0-39.544-32.607-72.15-72.844-72.15-40.238 0-72.844 32.606-72.844 72.844 0 33.994 23.588 63.131 55.5 70.762v6.938c-35.381-7.631-62.437-39.544-62.437-77.7 0-44.4 35.38-79.781 79.78-79.781s79.782 35.38 79.782 79.78c0 35.382-23.587 65.907-55.5 75.62Z" fill="#E44A49"/></svg>
